X:17
T:Slieve Russell
R:jig
D:Matt Molloy: Heathery Breeze.
Z:id:hn-jig-17
M:6/8
K:Ador
eAA Bcd|eaf ged|edB cBA|BAG Bcd|eAA Bcd|eaf ged|edB cBA|BAG A3:|
|:eaa efg|agf ged|eaa efg|fed B2A|eaa efg|agf ged|edB cBA|BAG A3:||

